lib/brands/icons/semantic-ui.svg

<svg xmlns="http://www.w3.org/2000/svg" fill="none" aria-hidden="true" viewBox="0 0 48 48"><g id="semantic-ui-Icon"><g id="Group"><path id="Vector" fill="#34BDB2" d="M6 6H42V42H6V6Z"/><path id="Vector_2" fill="white" d="M29.6898 18.2402C27.7891 17.1374 26.1019 16.2701 23.8946 16.3084C22.6318 16.3303 21.5476 17.0167 21.3196 18.2729C21.1074 19.4417 22.1464 20.0899 23.2272 20.4879C25.0197 21.148 26.5803 21.8449 28.3416 22.5789C31.5435 23.9133 33.1853 26.0742 32.9912 28.8469C32.7443 32.3748 30.6211 34.9051 27.2468 35.7393C22.8377 36.8294 18.5561 35.1689 14.9385 32.8508C15.8516 31.4599 16.9109 30.5104 17.8185 29.1279C19.9084 30.0175 21.5504 31.2196 23.7368 31.407C25.2785 31.5392 27.0253 31.4657 27.3717 29.6548C27.6839 28.0219 26.2627 27.1465 24.8766 26.6575C23.2264 26.0755 21.5792 25.3635 19.9609 24.7026C16.9694 23.4807 15.7521 21.0908 15.957 18.2753C15.957 16.6245 17.3267 13.2879 20.685 12.2501C25.8448 10.6554 28.6877 12.2883 32.4293 14.6929C31.4355 16.0072 30.6715 16.9416 29.6898 18.2402Z"/></g></g></svg>

<svg xmlns="http://www.w3.org/2000/svg" fill="none" aria-hidden="true" viewBox="0 0 48 48"><path fill="#34BDB2" d="M6 6h36v36H6V6Z"/><path fill="#fff" d="M29.69 18.24c-1.9-1.103-3.588-1.97-5.795-1.932-1.263.022-2.347.709-2.575 1.965-.212 1.169.826 1.817 1.907 2.215 1.793.66 3.353 1.357 5.115 2.09 3.202 1.335 4.843 3.496 4.65 6.269-.248 3.528-2.37 6.058-5.745 6.892-4.41 1.09-8.69-.57-12.308-2.888.913-1.391 1.972-2.34 2.88-3.723 2.09.89 3.732 2.091 5.918 2.279 1.542.132 3.289.059 3.635-1.752.312-1.633-1.11-2.509-2.495-2.998-1.65-.582-3.298-1.294-4.916-1.954-2.991-1.222-4.209-3.612-4.004-6.428 0-1.65 1.37-4.987 4.728-6.025 5.16-1.595 8.003.038 11.744 2.443-.993 1.314-1.757 2.249-2.74 3.547Z"/></svg>
